src/components/icons/SVG/filter.svg

<!-- Generated by IcoMoon.io -->
<svg version="1.1" xmlns="http://www.w3.org/2000/svg" width="32" height="32" viewBox="0 0 32 32">
<title>filter</title>
<path d="M16 2c-7.732 0-14 1.959-14 4.375v2.625l10.5 10.5v8.75c0 0.966 1.567 1.75 3.5 1.75s3.5-0.784 3.5-1.75v-8.75l10.5-10.5v-2.625c0-2.416-6.268-4.375-14-4.375zM4.581 5.796c0.655-0.373 1.575-0.728 2.66-1.025 2.405-0.658 5.515-1.021 8.759-1.021s6.355 0.363 8.759 1.021c1.085 0.297 2.005 0.652 2.66 1.025 0.432 0.246 0.665 0.455 0.774 0.579-0.109 0.124-0.342 0.333-0.774 0.579-0.655 0.373-1.575 0.728-2.66 1.025-2.405 0.658-5.515 1.021-8.759 1.021s-6.354-0.363-8.759-1.021c-1.085-0.297-2.005-0.652-2.66-1.025-0.432-0.246-0.665-0.455-0.774-0.579 0.109-0.124 0.342-0.333 0.774-0.579z"></path>
</svg>

<svg xmlns="http://www.w3.org/2000/svg" width="32" height="32"><path d="M16 2C8.268 2 2 3.959 2 6.375V9l10.5 10.5v8.75c0 .966 1.567 1.75 3.5 1.75s3.5-.784 3.5-1.75V19.5L30 9V6.375C30 3.959 23.732 2 16 2zM4.581 5.796c.655-.373 1.575-.728 2.66-1.025C9.646 4.113 12.756 3.75 16 3.75s6.355.363 8.759 1.021c1.085.297 2.005.652 2.66 1.025.432.246.665.455.774.579-.109.124-.342.333-.774.579-.655.373-1.575.728-2.66 1.025C22.354 8.637 19.244 9 16 9s-6.354-.363-8.759-1.021c-1.085-.297-2.005-.652-2.66-1.025-.432-.246-.665-.455-.774-.579.109-.124.342-.333.774-.579z"/></svg>
